packages/core/src/svgs/nmr.svg

<svg width="24" height="24" viewBox="0 0 24 24" fill="none" xmlns="http://www.w3.org/2000/svg">
<g clip-path="url(#clip0_31_14927)">
<path d="M0 0H24V24H0V0Z" fill="#F0F3FA"/>
<path d="M18.8572 14.6015V9.3944C18.8658 9.21869 18.7715 9.04297 18.6301 8.93583L12.343 4.40583C12.24 4.32572 12.1125 4.28366 11.982 4.28678C11.8516 4.28991 11.7263 4.33802 11.6272 4.42297L5.39153 8.92297C5.31396 8.97581 5.2504 9.04672 5.20635 9.1296C5.1623 9.21248 5.13907 9.30483 5.13867 9.39869V14.6058C5.13867 14.7901 5.23724 14.9744 5.39581 15.0773L11.6272 19.5773C11.8244 19.7487 12.1415 19.7615 12.343 19.5987L18.6001 15.0815C18.7587 14.9744 18.8572 14.7901 18.853 14.6015" fill="#050708"/>
<path d="M11.143 5.7041C11.1772 5.63553 11.2972 5.55838 11.4215 5.57124H12.6601C12.733 5.60124 12.7972 5.66553 12.8572 5.7041V6.42838H12.4715L12.4287 6.34267V5.99981H11.5715V6.22267H11.143V5.7041ZM10.2858 5.99981H10.7144V7.28553H10.2858V5.99981ZM13.2858 6.42838H14.143V6.85695L13.2858 6.85267V6.42838ZM11.4172 6.6041H11.8115C11.9401 6.83124 12.0987 7.04124 12.1972 7.27695C12.0772 7.28553 11.9572 7.28553 11.8372 7.28553C11.6915 7.05838 11.5544 6.83124 11.4172 6.6041ZM12.4287 7.07124H12.8572L13.7144 8.41695V8.86267H13.5772L12.8572 7.7141V8.99981H12.4287V7.07124ZM9.85725 11.9998H10.2858L11.143 13.187V13.5941H11.0058L10.2858 12.6298V13.7141H9.85725V11.9998ZM14.143 7.28553H14.5715V7.7141H14.143V7.28553ZM8.47296 7.28553H9.42868V7.7141L8.40868 8.57124L8.14296 8.29695L8.82439 7.7141H8.47296V7.28553ZM11.143 7.28553H11.5715V7.7141H11.143V7.28553ZM9.68153 7.7141C9.87868 7.97124 10.0672 8.22838 10.273 8.48553C10.4744 8.22838 10.6672 7.97124 10.873 7.7141C10.873 7.88553 10.8815 8.05267 10.8644 8.21981C10.6801 8.48981 10.4701 8.73838 10.2687 8.99981C10.0758 8.74267 9.8701 8.4941 9.68582 8.23267C9.66439 8.06124 9.68153 7.88981 9.68153 7.71838V7.7141ZM7.71439 13.7184L8.35725 14.4898L9.0001 13.7141V14.2241L8.35725 14.9998L7.71439 14.237V13.7227V13.7184ZM15.0001 15.4327L15.643 16.2041L16.2858 15.4284V15.9384L15.643 16.7141L15.0001 15.9512V15.437V15.4327ZM14.5715 7.7141H16.2858V8.14267H14.5715V7.7141ZM11.5715 8.14267H12.0001V9.69838L11.863 9.85267C11.5287 9.86124 11.1901 9.85267 10.8515 9.85695C10.8087 9.80553 10.753 9.75838 10.7144 9.70267V8.99981H11.143V9.42838H11.5715V8.14267ZM16.7144 9.42838V8.57124H17.143V9.42838H16.7144ZM15.0001 8.99981H15.8572L16.2858 10.2855H15.8572L15.5401 9.42838H15.313L15.0001 10.2855H14.5715L15.0001 8.99981ZM8.14296 11.1427H9.0001L9.42868 12.4284H9.0001L8.67868 11.5712H8.45153L8.14296 12.4284H7.71439L8.14296 11.1427ZM13.2858 14.9998H14.143L14.5715 16.2855H14.143L13.8215 15.4284H13.5944L13.2815 16.2855H12.853L13.2815 14.9998H13.2858ZM6.42868 8.99981H7.71439V9.42838H6.42868V8.99981ZM9.42868 16.7141H10.7144V17.1427H9.42868V16.7141ZM7.71439 12.857H9.0001V13.2855H7.71439V12.857ZM14.143 12.4284H15.4287V12.857H14.143V12.4284ZM8.14296 8.99981H8.57153V9.42838H8.14296V8.99981ZM9.42868 8.99981H9.85725V9.85695H9.42868V8.99981ZM11.143 11.9998H11.5715V12.857H11.143V11.9998ZM11.5715 18.4284H12.0001V19.2855H11.5715V18.4284ZM17.323 9.17124H17.7601L18.1887 9.85695H17.7258L17.323 9.17124ZM12.0001 14.9998H12.4287L12.8572 15.6855H12.3987L11.9958 14.9998H12.0001ZM10.2858 17.7427H10.723L11.143 18.4284H10.6887L10.2858 17.7427ZM12.8572 9.42838H13.2858V10.2855H12.8572V9.42838ZM13.7144 9.85695V9.42838H14.143V9.85695H13.7144ZM7.71439 10.3841C8.00153 10.1784 8.30582 9.99838 8.60153 9.80553L9.18439 9.80981C8.89725 10.0112 8.58868 10.187 8.29725 10.3884L9.18868 10.9498H8.58868C8.29725 10.7612 7.99725 10.5855 7.71439 10.3841ZM16.7144 9.85695H17.143V10.2855H16.7144V9.85695ZM5.57153 9.85695H7.28582V10.2855L6.51439 10.7141L6.29153 10.4655L6.60868 10.2855H5.57153V9.85695ZM10.2858 10.2855H11.5715V10.7141H10.2858V10.2855ZM12.0001 10.2855H12.4287V10.7141H12.0001V10.2855ZM13.2858 10.9412C13.2858 10.8341 13.3887 10.7141 13.4658 10.7141H14.143V11.1427H13.7144V11.5712H15.0001V11.9998H13.4615C13.3758 11.9998 13.2901 11.8798 13.2901 11.7727V10.9412M5.57153 13.517C5.57153 13.4055 5.6701 13.2855 5.75153 13.2855H6.42868V13.7141H6.0001V14.1427H7.28582V14.5712H5.74725C5.66153 14.5712 5.57582 14.4512 5.57582 14.3441V13.517M15.0001 10.7141H15.4287V11.1427H15.0001V10.7141ZM16.2858 10.7141H17.5715V11.1427H16.2858V10.7141ZM9.42868 11.1427H10.2858V11.5712H9.42868V11.1427ZM7.28582 15.4284H8.14296V15.857H7.28582V15.4284Z" fill="white"/>
<path d="M11.1429 11.1431H12.54C12.7243 11.1431 12.8529 11.2716 12.8571 11.4088V12.2659L12.6771 12.4288H12V12.0002H12.4286V11.5716H11.1429V11.1431ZM10.7143 16.2859H12.1114C12.2957 16.2859 12.4243 16.4145 12.4286 16.5516V17.4088L12.2486 17.5716H11.5714V17.1431H12V16.7145H10.7143V16.2859ZM16.89 11.5716H18.2143C18.3214 11.6274 18.4543 11.7259 18.4286 11.8459V13.2859H18V12.0002H17.1429V12.4288H16.7143V11.7259L16.89 11.5716ZM13.8943 13.2859H15.21C15.3214 13.3416 15.45 13.4402 15.4243 13.5602V15.0002H15V13.7145H14.1429V14.1431H13.7143V13.4402L13.8943 13.2859ZM6.85714 11.5716H7.28571V12.8574H6.85714V11.5716ZM11.1429 14.5716H11.5714V15.8574H11.1429V14.5716ZM15.8571 12.4288H16.2857V13.7145H15.8571V12.4288ZM6 11.5716H6.42857V12.0002H6V11.5716ZM9.42857 14.1431H9.85714V14.5716H9.42857V14.1431ZM8.57143 16.2859H9V16.7145H8.57143V16.2859ZM12.4286 18.0002H12.8571V18.4288H12.4286V18.0002ZM16.2857 15.0002H16.7143V15.4288H16.2857V15.0002ZM13.2857 12.4288H13.7143V12.8574H13.2857V12.4288ZM12.4286 12.8574H12.8571V13.2859H12.4286V12.8574ZM9 15.4288L10.05 14.6316L10.3157 14.9316L9.64714 15.4288H10.7143V15.8574H9V15.4288ZM11.5714 14.1259L12.6214 13.2859L12.8871 13.5988L12.2186 14.1259H13.2857V14.5716H11.5714V14.1259ZM16.2857 14.1259L17.3357 13.2859L17.6014 13.5988L16.9286 14.1259H18V14.5716H16.2857V14.1259ZM14.0314 16.5002C14.1771 16.3931 14.5671 16.6159 14.5671 16.6159V16.6588C14.5671 16.6588 13.9114 16.9459 13.5943 17.1431H14.1429V17.5716H12.8571V17.1431L14.0314 16.5002Z" fill="white"/>
</g>
<defs>
<clipPath id="clip0_31_14927">
<rect width="24" height="24" fill="white"/>
</clipPath>
</defs>
</svg>

<svg xmlns="http://www.w3.org/2000/svg" width="24" height="24" fill="none" viewBox="0 0 24 24"><g clip-path="url(#a)"><path fill="#F0F3FA" d="M0 0h24v24H0z"/><path fill="#050708" d="M18.857 14.602V9.394a.56.56 0 0 0-.227-.458l-6.287-4.53a.566.566 0 0 0-.716.017l-6.235 4.5a.58.58 0 0 0-.253.476v5.207c0 .184.098.368.257.471l6.231 4.5a.574.574 0 0 0 .716.022l6.257-4.517a.57.57 0 0 0 .253-.48"/><path fill="#fff" d="M11.143 5.704c.034-.068.154-.146.278-.133h1.24c.072.03.136.095.196.133v.724h-.385l-.043-.085V6h-.857v.223h-.429zM10.286 6h.428v1.286h-.428zm3 .428h.857v.429l-.857-.004zm-1.869.176h.395c.128.227.287.437.385.673a5 5 0 0 1-.36.009c-.146-.228-.283-.455-.42-.682m1.012.467h.428l.857 1.346v.446h-.137l-.72-1.149V9h-.428zM9.857 12h.429l.857 1.187v.407h-.137l-.72-.964v1.084h-.429zm4.286-4.714h.428v.428h-.428zm-5.67 0h.956v.428l-1.02.857-.266-.274.681-.583h-.351zm2.67 0h.428v.428h-.428zm-1.461.428c.197.257.385.514.591.772.201-.258.394-.515.6-.772 0 .172.009.339-.009.506-.184.27-.394.518-.595.78-.193-.257-.399-.506-.583-.767-.022-.172-.004-.343-.004-.515zm-1.968 6.004.643.772.643-.776v.51L8.357 15l-.643-.763v-.519M15 15.433l.643.771.643-.776v.51l-.643.776-.643-.763v-.518m-.428-7.719h1.714v.429H14.57zm-3 .429H12v1.555l-.137.155c-.334.008-.673 0-1.011.004-.043-.051-.099-.099-.138-.154V9h.429v.428h.428zm5.142 1.285v-.857h.429v.857zM15 9h.857l.429 1.286h-.429l-.317-.858h-.227l-.313.857h-.428zm-6.857 2.143H9l.429 1.285H9l-.321-.857h-.227l-.309.857h-.429zM13.286 15h.857l.428 1.285h-.428l-.322-.857h-.227l-.312.857h-.429L13.281 15zM6.429 9h1.285v.428H6.43zm3 7.714h1.285v.429H9.43zm-1.715-3.857H9v.429H7.714zm6.429-.429h1.286v.429h-1.286zM8.143 9h.429v.428h-.429zm1.286 0h.428v.857H9.43zm1.714 3h.428v.857h-.428zm.428 6.428h.43v.857h-.43zm5.752-9.257h.437l.429.686h-.463zM12 15h.429l.428.685H12.4L11.996 15zm-1.714 2.743h.437l.42.685h-.454zm2.571-8.315h.429v.857h-.429zm.857.429v-.429h.429v.429zm-6 .527c.288-.206.592-.386.888-.578l.582.004c-.287.201-.595.377-.887.578l.892.562h-.6c-.292-.189-.592-.364-.875-.566m9-.527h.429v.429h-.429zm-11.142 0h1.714v.429l-.772.428-.222-.248.317-.18H5.572zm4.714.429h1.286v.428h-1.286zm1.714 0h.429v.428H12zm1.286.655c0-.107.103-.227.18-.227h.677v.429h-.429v.428H15V12h-1.539c-.085 0-.17-.12-.17-.227v-.832m-7.72 2.576c0-.111.1-.231.18-.231h.678v.428H6v.429h1.286v.428H5.747c-.085 0-.171-.12-.171-.227v-.827M15 10.714h.429v.429H15zm1.286 0h1.285v.429h-1.285zm-6.857.429h.857v.428h-.857zm-2.143 4.285h.857v.429h-.857z"/><path fill="#fff" d="M11.143 11.143h1.397c.184 0 .313.129.317.266v.857l-.18.163H12V12h.429v-.428h-1.286zm-.429 5.143h1.397c.185 0 .313.128.318.266v.857l-.18.163h-.678v-.429H12v-.428h-1.286zm6.176-4.714h1.324c.107.055.24.154.215.274v1.44H18V12h-.857v.429h-.429v-.703zm-2.996 1.714h1.316c.111.056.24.154.214.274V15H15v-1.286h-.857v.43h-.429v-.704zm-7.037-1.714h.429v1.285h-.429zm4.286 3h.428v1.285h-.428zm4.714-2.143h.429v1.285h-.429zM6 11.572h.429V12H6zm3.429 2.571h.428v.429H9.43zm-.858 2.143H9v.428h-.429zM12.43 18h.428v.429h-.428zm3.857-3h.428v.429h-.428zm-3-2.571h.428v.428h-.428zm-.857.428h.428v.429h-.428zM9 15.43l1.05-.797.266.3-.669.497h1.067v.428H9zm2.571-1.303 1.05-.84.266.313-.668.527h1.067v.446H11.57zm4.715 0 1.05-.84.265.313-.672.527H18v.446h-1.714zM14.03 16.5c.146-.107.536.116.536.116v.043s-.656.287-.973.484h.549v.429h-1.286v-.429z"/></g><defs><clipPath id="a"><path fill="#fff" d="M0 0h24v24H0z"/></clipPath></defs></svg>
